!!!OTL: ALLE LEUTE SOLLENS WISSEN
!!!ARE: Europa, Mitteleuropa, Deutschland, Thueringen
!!!SCT: E0619B
!!!YEM: Copyright 1995, estate of Helmut Schaffrath.
**kern
*ICvox
*Ivox
*M3/4
*k[b-]
*F:
{8f
8g
=1
4a
4a
8b-
8g
=2
8g
8a
4a}
{8a
8b-
=3
4cc
8b-
8a
8g
8f
=4
8e
8g
4g}
{8g
8a
=5
4.b-
8dd
8cc
8b-
=6
4a
4r}
{8cc
8ff
=7
2dd
8cc
8b-
=8
4.a
8b-
4g
=9
4f
4r}
==
!!!AGN: Liebes - Lied, Abschied
!!!ONB: ESAC (Essen Associative Code) Database: ERK2
!!!AMT: simple triple
!!!AIN: vox
!!!EED: Helmut Schaffrath
!!!EEV: 1.0
*-
